X: 20112
T: THAYER'S MARCH
C:
%R: march
B: Elias Howe "The Musician's Companion" 1843 p.11 #2
S: http://imslp.org/wiki/The_Musician's_Companion_(Howe,_Elias)
Z: 2015 John Chambers <jc:trillian.mit.edu>
M: C
L: 1/8
K: D
% - - - - - - - - - - - - - - - - - - - - - - - - -
AB/c/ |\
d2d>d d2(ef) | g2g>g g2d2 | (ed)(gd) (ed)(BG) | A2A>A A2AB/c/ |\
d2d>d d2(ef) | g2g>g g2d2 | (ed)(gd) (ed)(BG) | A2d>d d2 :|
|: D>F |\
A2A>A A2FA | Bd d>d d2DF | (AF)(dB) (BA)(FD) | E2E>E E2D>F |\
A2A>A A2(FA) | (Bd) d>d d2(DF) | (AF)(dB) (BA)(FD) | F2D>D D2 :|
% - - - - - - - - - - - - - - - - - - - - - - - - -

%%sep 1 1 500

